germany/districts/9473.svg

<svg xmlns="http://www.w3.org/2000/svg" width="600" height="656"><path d="M594.67 5H5.33l25.22 393.225a270 270 0 0 0 538.9 0z" stroke="#000" stroke-width="10" fill="#fff"/><path d="m585.07 14-24.64 384.225A261 261 0 0 1 298 641.992V14"/><path d="M302 73.6h283.259l-4.08 63.6H302v63.6h275.1l-4.078 63.6H302V328h266.94l-4.08 63.6H302v63.6h252.449A265 265 0 0 1 302 645.992" fill="gold"/><path d="M300 518.8h175v63.6H300"/><g stroke="#000" stroke-width="4"><path d="M300 582.4v64.143L92.852 8h51.183L300 73.6V8H199.419L300 328 21.656 212.703l8.383 130.677L300 455.2V200.8L13.051 81.94 189.16 623.953A267 267 0 0 1 51.812 479.598z" stroke-linejoin="bevel" fill="#09f" fill-rule="evenodd"/><path d="M300 78.715a600 925 0 0 1 172.246 506.297A267 267 0 0 0 506.2 550.6a22 22 0 0 1 23.1-28.9 30 21 11.6 0 1-10.2-39.3 12 12 0 1 0 22.7 1.9 13 13 0 0 0 4.1.9 267 267 0 0 0 8.6-23.3 13 13 0 0 0-16.7.8 12 12 0 1 0-20.5 9.9 21 30 57.6 0 1-4.4-40.4 30 21 7.7 0 1-12.9-38.5 12 12 0 1 0 22.8.4 13 13 0 1 0-5.5-21.3 12 12 0 1 0-19.8 11.2 21 30 53.7 0 1-7.3-40.2 30 21 3.6 0 1-15.6-37.4 12 12 0 1 0 22.8-1.3 13 13 0 1 0-7-20.9 12 12 0 1 0-18.9 12.7 21 30 49.6 0 1-10-39.4 21 30 89.1 0 1-18.5-36.2 12 12 0 1 0 22.6-3A13 13 0 1 0 457 198a12 12 0 1 0-17.9 14.1 21 30 45.1 0 1-13.2-38.5 21 30 84.6 0 1-21.3-34.6 12 12 0 1 0 22.3-4.8 13 13 0 1 0-10.1-19.5 12 12 0 1 0-16.8 15.4 21 30 40.6 0 1-16.2-37.2 21 30 78.9 0 1-24.6-32.3 12 12 0 1 0 21.7-6.9 13 13 0 1 0-12-18.5 12 12 0 1 0-15.2 17.1A21 30 34.9 0 1 334 17a24 24 0 0 1-34-9z" stroke-linejoin="round" fill="#090"/><path d="M300 61.262A610 935 0 0 1 481.383 576.93" fill="none"/></g></svg>

<?xml version="1.0" encoding="utf-8" standalone="no"?>
<!DOCTYPE svg PUBLIC "-//W3C//DTD SVG 1.1//EN" "http://www.w3.org/Graphics/SVG/1.1/DTD/svg11.dtd">
<svg version="1.1"
   xmlns="http://www.w3.org/2000/svg"
   width="600" height="656" viewBox="0,0 600,656">
  <title>Wappen vom Landkreis Coburg</title>
  <desc>Wappen des oberfränkischen Landkreises Coburg</desc>
  <path d="M 594.67,5 H 5.33 L 30.55,398.225 a 270,270 0 0,0 538.9,0 z" stroke="black" stroke-width="10" fill="white" />
  <path d="M 585.07,14 L 560.43,398.225 A 261,261 0 0,1 298,641.992 V 14" />
  <path d="M 302,73.6 L 585.259,73.6 581.179,137.2 302,137.2 302,200.8 577.1,200.8 573.022,264.4 302,264.4 302,328 568.94,328 564.86,391.6 302,391.6 302,455.2 554.449,455.2 A 265,265 0 0,1 302,645.992" fill="#ffd700" />
  <path d="M 300,518.8 H 475 v 63.6 H 300" />
  <g stroke="black" stroke-width="4">
    <path d="M 300,582.4 L 300,646.543 92.852,8 144.035,8 300,73.6 300,8 199.419,8 300,328 21.656,212.703 30.039,343.38 300,455.2 300,200.8 13.051,81.94 189.16,623.953 A 267,267 0 0,1 51.812,479.598 z" stroke-linejoin="bevel" fill="#0099ff" fill-rule="evenodd" />
    <path d="M 300,78.715 a 600,925 0 0,1 172.246,506.297 267,267 0 0,0 33.954,-34.412 22,22 0 0,1 23.1,-28.9 30,21 11.6 0,1 -10.2,-39.3 12,12 0 1,0 22.7,1.9 13,13 0 0,0 4.1,0.9 267,267 0 0,0 8.6,-23.3 13,13 0 0,0 -16.7,0.8 12,12 0 1,0 -20.5,9.9 21,30 57.6 0,1 -4.4,-40.4 30,21 7.7 0,1 -12.9,-38.5 12,12 0 1,0 22.8,0.4 13,13 0 1,0 -5.5,-21.3 12,12 0 1,0 -19.8,11.2 21,30 53.7 0,1 -7.3,-40.2 30,21 3.6 0,1 -15.6,-37.4 12,12 0 1,0 22.8,-1.3 13,13 0 1,0 -7,-20.9 12,12 0 1,0 -18.9,12.7 21,30 49.6 0,1 -10,-39.4 21,30 89.1 0,1 -18.5,-36.2 12,12 0 1,0 22.6,-3 A 13,13 0 1 0 457,198 12,12 0 1 0 439.1,212.1 21,30 45.1 0 1 425.9,173.6 21,30 84.6 0 1 404.6,139 12,12 0 1 0 426.9,134.2 13,13 0 1 0 416.8,114.7 12,12 0 1 0 400,130.1 21,30 40.6 0 1 383.8,92.9 21,30 78.9 0 1 359.2,60.6 12,12 0 1 0 380.9,53.7 13,13 0 1 0 368.9,35.2 12,12 0 1 0 353.7,52.3 21,30 34.9 0 1 334,17 24,24 0 0 1 300,8 z" stroke-linejoin="round" fill="#009900" />
    <path d="M 300,61.262 A 610,935 0 0,1 481.383,576.93" fill="none" />
  </g>
</svg>
